X:1
T:Title
%%score { 1 | ( 2 3 ) }
L:1/8
Q:1/4=100
M:4/4
K:Ab
V:1 treble nm="Grand Piano"
V:2 bass 
V:3 bass 
V:1
 [Ec]>[Ec] [DB]>[Fd] [Ec]2 [CA]2 | B>B F>[EFc] [DFB]4 | G>G F>A G2 F2 | %3
w: J.~Howard~Entwisle * * * * *|||
 [CF]>[CF] [CE]>[K:bass][E,A,C] [A,CE]4 | [Ec]>[Ec] [DB]>[Fd] [Ec]2 [CA]2 | %5
w: ||
 [DB]>[DB] [Fc]>[Fc] [Fd]4 | G>G F>A G>G F>F | E2 B2 [CA]4 | B2 c2 d2 c2 | [GB]>[GB] [GB]>[Gc] A4 | %10
w: |||||
 c2 d2 e2 c2 | [A=d]>[Ad] [Ac]>[Ad] [Ge]4 | E>F G>A B2 E2 | A>B c>d e4 | f>f e>e d2 c2 | %15
w: |||||
[M:35/32] [DGB]>[DGB][EGc]3/2-(3:2:6[EGc]3/4-[EGc]/8[DEB]3/4-[DEB]/8[CEA]3/4-[CEA]/8- [CEA]3- [CEA]/ |] %16
w: |
V:2
 [A,,A,]>[A,,A,] [A,,A,]>[A,,A,] [A,,A,]2 [A,,E,]2 | [D,F,D]>[D,F,D] [D,A,D]>D, D,4 | %2
 [E,B,D]>[E,B,D] [E,B,D]>[E,B,D] [E,B,D]2 [E,G,D]2 | %3
 [A,,A,]>[A,,A,] [A,,A,]>A,, z2[K:treble] F/G/A/B/ | %4
 [A,,A,]>[A,,A,] [A,,A,]>[A,,A,] [A,,A,]2 [A,,E,]2 | [D,F,]>[D,F,] [C,=A,]>[C,A,] [B,,B,]4 | %6
 [E,B,D]>[E,B,D] [E,B,D]>[E,B,D] [E,B,D]>[E,B,D] [E,A,D]>[E,A,D] | [E,G,D]2 [E,D]2 [A,,E,]4 | %8
 [E,G,E]2 [E,A,E]2 [E,B,E]2 [E,A,E]2 | [E,D]>[E,D] [E,D]>[E,E] [A,CE]4 | %10
 [A,E]2 [A,B,E]2 [A,CE]2 [A,E]2 | [F,B,]>[F,B,] [B,,B,]>[B,,B,] [E,B,]4 | E,>F, G,>A, B,2 E,2 | %13
 A,>B,[K:treble] C>D E4 | [DA]>[DA] [CEA]>[CEA] [B,EG]2 [A,EA]2 | %15
[M:35/32][K:bass] E,>E,E,3/2-(3:2:6E,3/4-E,/8E,3/4-E,/8A,,3/4-A,,/8- A,,3- A,,/ |] %16
V:3
 x8 | x8 | x8 | z4 A,,4[K:treble] | x8 | x8 | x8 | x8 | x8 | x8 | x8 | x8 | x8 | x2[K:treble] x6 | %14
 x8 |[M:35/32][K:bass] x35/4 |] %16

